images/support.svg

<svg width="65" height="64" viewBox="0 0 65 64" fill="none" xmlns="http://www.w3.org/2000/svg">
<path fill-rule="evenodd" clip-rule="evenodd" d="M53.7847 35.0781V52.3733C53.7847 55.4666 51.3604 58.0017 48.3966 58.0017H16.3036C13.3398 58.0017 10.9155 55.4666 10.9155 52.3733V35.0781H27.5816V42.5889L32.3501 45.7224L37.1186 42.5889V35.0781H53.7847Z" fill="url(#paint0_linear_22728_11382)"/>
<path fill-rule="evenodd" clip-rule="evenodd" d="M29.252 35.0781V41.6866L32.35 43.7222L35.4481 41.6866V35.0781H29.252Z" fill="url(#paint1_linear_22728_11382)"/>
<path fill-rule="evenodd" clip-rule="evenodd" d="M12.4069 15.1445H52.2934C54.1758 15.1445 55.7143 16.8526 55.7143 18.94V29.1931C55.7143 31.2805 54.1758 32.9886 52.2934 32.9886H36.6475H28.0529H12.4069C10.5245 32.9886 8.98608 31.2805 8.98608 29.1931V18.94C8.98608 16.8526 10.5245 15.1445 12.4069 15.1445Z" fill="url(#paint2_linear_22728_11382)"/>
<path fill-rule="evenodd" clip-rule="evenodd" d="M24.0455 5.95312H40.655C42.1982 5.95312 43.461 7.21592 43.461 8.75908V13.1365H39.9035V10.5496C39.9035 9.85225 39.3333 9.27975 38.6359 9.27975H26.0645C25.3672 9.27975 24.797 9.85225 24.797 10.5496V13.1365H21.2395V8.75908C21.2395 7.21592 22.5023 5.95312 24.0455 5.95312Z" fill="url(#paint3_linear_22728_11382)"/>
<defs>
<linearGradient id="paint0_linear_22728_11382" x1="32.3501" y1="35.0781" x2="32.3501" y2="58.0017" gradientUnits="userSpaceOnUse">
<stop stop-color="#EF8080"/>
<stop offset="1" stop-color="#F0145A"/>
</linearGradient>
<linearGradient id="paint1_linear_22728_11382" x1="32.35" y1="35.0781" x2="32.35" y2="43.7222" gradientUnits="userSpaceOnUse">
<stop stop-color="#EF8080"/>
<stop offset="1" stop-color="#F0145A"/>
</linearGradient>
<linearGradient id="paint2_linear_22728_11382" x1="32.3502" y1="15.1445" x2="32.3502" y2="32.9886" gradientUnits="userSpaceOnUse">
<stop stop-color="#EF8080"/>
<stop offset="1" stop-color="#F0145A"/>
</linearGradient>
<linearGradient id="paint3_linear_22728_11382" x1="32.3502" y1="5.95312" x2="32.3502" y2="13.1365" gradientUnits="userSpaceOnUse">
<stop stop-color="#EF8080"/>
<stop offset="1" stop-color="#F0145A"/>
</linearGradient>
</defs>
</svg>

<svg xmlns="http://www.w3.org/2000/svg" width="65" height="64" fill="none"><path fill="url(#a)" fill-rule="evenodd" d="M53.785 35.078v17.295c0 3.094-2.425 5.629-5.388 5.629H16.304c-2.964 0-5.388-2.535-5.388-5.629V35.078h16.666v7.51l4.768 3.134 4.769-3.133v-7.51h16.666Z" clip-rule="evenodd"/><path fill="url(#b)" fill-rule="evenodd" d="M29.252 35.078v6.609l3.098 2.035 3.098-2.035v-6.609h-6.196Z" clip-rule="evenodd"/><path fill="url(#c)" fill-rule="evenodd" d="M12.407 15.145h39.886c1.883 0 3.421 1.708 3.421 3.795v10.253c0 2.087-1.538 3.796-3.42 3.796H12.406c-1.883 0-3.42-1.708-3.42-3.796V18.94c0-2.087 1.537-3.796 3.42-3.796Z" clip-rule="evenodd"/><path fill="url(#d)" fill-rule="evenodd" d="M24.046 5.953h16.609a2.814 2.814 0 0 1 2.806 2.806v4.377h-3.557V10.55c0-.698-.57-1.27-1.268-1.27H26.064c-.697 0-1.267.572-1.267 1.27v2.586h-3.558V8.76a2.814 2.814 0 0 1 2.806-2.806Z" clip-rule="evenodd"/><defs><linearGradient id="a" x1="32.35" x2="32.35" y1="35.078" y2="58.002" gradientUnits="userSpaceOnUse"><stop stop-color="#EF8080"/><stop offset="1" stop-color="#F0145A"/></linearGradient><linearGradient id="b" x1="32.35" x2="32.35" y1="35.078" y2="43.722" gradientUnits="userSpaceOnUse"><stop stop-color="#EF8080"/><stop offset="1" stop-color="#F0145A"/></linearGradient><linearGradient id="c" x1="32.35" x2="32.35" y1="15.145" y2="32.989" gradientUnits="userSpaceOnUse"><stop stop-color="#EF8080"/><stop offset="1" stop-color="#F0145A"/></linearGradient><linearGradient id="d" x1="32.35" x2="32.35" y1="5.953" y2="13.136" gradientUnits="userSpaceOnUse"><stop stop-color="#EF8080"/><stop offset="1" stop-color="#F0145A"/></linearGradient></defs></svg>
